src/assets/icons/git.svg

<svg width="51" height="50" viewBox="0 0 51 50" fill="none" xmlns="http://www.w3.org/2000/svg">
<g clip-path="url(#clip0_1479_21476)">
<path d="M2.04529 27.5236C0.651571 26.1298 0.651571 23.8702 2.04529 22.4764L23.4764 1.04529C24.8702 -0.348429 27.1298 -0.348429 28.5236 1.04529L49.9547 22.4764C51.3484 23.8702 51.3484 26.1298 49.9547 27.5236L28.5236 48.9547C27.1298 50.3484 24.8702 50.3484 23.4764 48.9547L2.04529 27.5236Z" fill="#EE513B"/>
<path d="M19.1342 5L17 7.17115L22.5122 12.7787C22.2892 13.2653 22.1647 13.8081 22.1647 14.3805C22.1647 16.0054 23.1683 17.3919 24.5793 17.9334V31.6509C23.1683 32.1923 22.1647 33.5788 22.1647 35.2038C22.1647 37.3004 23.8354 39 25.8963 39C27.9573 39 29.628 37.3004 29.628 35.2038C29.628 33.7307 28.8032 32.4533 27.5976 31.8242V17.9521L32.8668 23.3124C32.6546 23.7892 32.5366 24.3185 32.5366 24.8759C32.5366 26.9725 34.2074 28.6721 36.2683 28.6721C38.3293 28.6721 40 26.9725 40 24.8759C40 22.7793 38.3293 21.0797 36.2683 21.0797C35.8678 21.0797 35.4821 21.1438 35.1204 21.2626L29.4614 15.5058C29.5697 15.1503 29.628 14.7722 29.628 14.3805C29.628 12.2839 27.9573 10.5842 25.8963 10.5842C25.5112 10.5842 25.1398 10.6436 24.7902 10.7538L19.1342 5Z" fill="white"/>
</g>
<defs>
<clipPath id="clip0_1479_21476">
<rect width="50" height="50" fill="white" transform="translate(0.820312)"/>
</clipPath>
</defs>
</svg>

<svg xmlns="http://www.w3.org/2000/svg" width="51" height="50" fill="none"><g clip-path="url(#a)"><path fill="#EE513B" d="M2.045 27.524a3.569 3.569 0 0 1 0-5.048l21.431-21.43a3.569 3.569 0 0 1 5.048 0l21.43 21.43a3.569 3.569 0 0 1 0 5.048l-21.43 21.43a3.569 3.569 0 0 1-5.048 0l-21.43-21.43Z"/><path fill="#fff" d="M19.134 5 17 7.171l5.512 5.608a3.836 3.836 0 0 0-.347 1.601 3.796 3.796 0 0 0 2.414 3.553v13.718a3.795 3.795 0 0 0-2.414 3.553c0 2.096 1.67 3.796 3.731 3.796s3.732-1.7 3.732-3.796c0-1.473-.825-2.75-2.03-3.38V17.952l5.269 5.36a3.836 3.836 0 0 0-.33 1.564c0 2.096 1.67 3.796 3.731 3.796S40 26.972 40 24.876c0-2.097-1.67-3.796-3.732-3.796-.4 0-.786.064-1.148.183l-5.659-5.757c.109-.356.167-.734.167-1.126 0-2.096-1.67-3.796-3.732-3.796-.385 0-.756.06-1.106.17L19.134 5Z"/></g><defs><clipPath id="a"><path fill="#fff" d="M.82 0h50v50h-50z"/></clipPath></defs></svg>
